public/illustrations/administration.svg

<svg width="103" height="98" viewBox="0 0 103 98" fill="none" xmlns="http://www.w3.org/2000/svg">
<path d="M28.253 46.5632C25.9071 44.9258 23.3767 43.5862 21.3999 41.7047C12.326 32.9583 13.7134 17.2278 24.0614 10.0473C32.9567 3.87896 45.4362 7.61212 49.9672 18.0018C53.5396 26.266 52.3846 34.024 46.6152 41.02L45.8054 41.9846C46.1337 42.0972 46.473 42.175 46.8176 42.2168C63.4054 42.2823 76.3852 49.5938 86.7094 62.1329C88.3881 64.248 89.937 66.463 91.3475 68.7656C92.8598 71.1472 92.1395 72.8977 89.4542 73.6717C61.522 81.7096 33.5878 89.7416 5.65164 97.7676C2.37694 98.7083 -0.153503 96.7137 0.00725487 93.3199C0.709827 78.2444 5.87192 65.092 16.8809 54.4999C20.1339 51.3998 23.8376 48.8103 27.866 46.8192C28.003 46.7467 28.1326 46.6609 28.253 46.5632ZM36.5886 51.0942C35.6181 53.2138 34.8024 55.1369 33.8677 57.0482C32.7602 59.3226 31.8016 59.8942 29.3545 59.4953C26.7404 59.1087 24.1547 58.5497 21.6143 57.8222C21.0859 57.6007 20.4992 57.5594 19.945 57.7047C19.3908 57.85 18.8998 58.1738 18.548 58.626C10.6054 66.783 6.22323 76.619 4.62161 87.8006C4.34772 89.7356 4.25246 91.7004 4.02621 93.9034C5.81241 93.4152 7.27113 93.0282 8.712 92.6292C19.322 89.6939 19.2863 89.6523 26.2644 81.0726C32.3051 73.5769 37.2101 65.2334 40.8219 56.3099C41.0481 55.7621 41.0243 54.7261 40.673 54.3867C39.379 53.2178 38.0236 52.1187 36.6124 51.0942H36.5886ZM19.4232 26.8793C19.5721 28.1058 19.6376 29.3561 19.8877 30.5588C20.1355 31.6645 20.474 32.7478 20.8998 33.7978C23.8768 41.407 32.4863 44.9139 39.393 41.3475C49.4195 36.1675 50.7472 20.9967 41.7269 14.1198C41.0287 13.7043 40.1984 13.5702 39.4048 13.7447C37.4043 14.1496 35.4811 15.0189 33.4508 15.2451C29.0746 15.7453 25.5261 17.6267 22.2454 20.5204C21.3158 21.289 20.5786 22.2642 20.0927 23.3682C19.6068 24.4723 19.3858 25.6746 19.4471 26.8793H19.4232ZM49.7886 80.7748L87.1024 70.01C83.3454 62.5973 70.711 51.4276 65.0726 50.5524C61.3335 61.079 55.8974 70.8317 49.7886 80.7748ZM61.4109 48.7423C57.7578 47.4207 53.9255 46.6599 50.0446 46.4858C49.8043 46.5317 49.5776 46.6317 49.3816 46.7782C49.1856 46.9246 49.0255 47.1138 48.9134 47.3312C48.2466 48.7423 47.6571 50.2011 47.1272 51.6717C42.8999 63.3356 37.309 74.2433 29.3604 83.859C28.4792 84.9188 27.6398 86.0084 26.5085 87.4314C27.5088 87.1754 28.0744 87.0444 28.6281 86.8837C31.748 85.9965 34.8202 84.8772 37.9878 84.2579C42.1913 83.4303 44.9481 80.8106 46.9724 77.4168C51.4796 69.8552 56.0701 62.3234 59.2138 54.0414C59.8568 52.3326 60.6071 50.6655 61.4109 48.7423ZM24.1805 53.702L24.3115 54.2617C26.0262 54.613 27.7291 54.9881 29.4498 55.2798C29.6263 55.2742 29.799 55.2264 29.9533 55.1404C30.1076 55.0545 30.2392 54.9328 30.3369 54.7857C31.1288 53.1185 31.8433 51.4157 32.5816 49.7248L32.1469 49.2842L24.1805 53.702ZM44.692 46.4203L39.1488 47.236L39.0476 47.6885L42.9951 50.8084L44.692 46.4203Z" fill="black"/>
<path d="M91.2353 6.85008C91.3543 8.79108 91.4317 10.7321 91.5984 12.6612C91.9854 17.1148 93.9265 19.2106 98.386 20.0025C99.0767 20.1334 99.7733 20.2228 100.464 20.3478C101.655 20.574 102.512 21.1933 102.566 22.4555C102.619 23.7178 101.827 24.4025 100.625 24.6763C99.2613 24.98 97.8859 25.2717 96.5403 25.6468C93.1703 26.5876 91.4317 28.8203 91.3007 32.3332C91.1817 35.6198 91.0725 38.9104 90.9733 42.2049C90.9138 44.2174 90.3302 45.1819 89.062 45.295C87.7938 45.4082 86.6388 44.2174 86.4185 42.318C86.1565 40.121 86.1029 37.8942 85.7576 35.7151C85.3989 33.2663 84.8798 30.8438 84.2035 28.4631C83.3402 25.5456 81.3218 23.8606 78.1365 23.819C77.6535 23.7833 77.1772 23.6852 76.7194 23.5272C75.3857 23.1521 74.445 22.4495 74.7665 20.8717C75.0106 19.6333 76.4932 18.6449 77.8447 18.764C82.0125 19.1451 85.5849 16.7516 86.4363 12.679C86.9186 10.3272 86.9067 7.87416 87.0317 5.45684C87.1091 4.22436 86.871 2.9383 87.127 1.7475C87.2758 1.05684 88.0618 0.0803865 88.6572 0.00893858C89.3538 -0.0803714 90.3362 0.515026 90.8601 1.10447C91.2888 1.5927 91.3008 2.51557 91.3425 3.25387C91.4139 4.44466 91.3425 5.63546 91.3425 6.82626L91.2353 6.85008ZM84.7633 21.5148L88.2463 26.7364L91.914 22.9437L88.2761 18.7759L84.7633 21.5148Z" fill="black"/>
<path d="M19.4476 26.8794C19.392 25.6707 19.6205 24.4659 20.1148 23.3616C20.609 22.2573 21.3552 21.2842 22.2936 20.5205C25.5742 17.6388 29.1229 15.7573 33.4991 15.2452C35.5056 15.019 37.4287 14.1497 39.4531 13.7448C40.2466 13.5703 41.0769 13.7044 41.7751 14.1199C50.7954 20.9968 49.4677 36.1497 39.4411 41.3476C32.5345 44.92 23.925 41.4071 20.948 33.7979C20.5222 32.7479 20.1837 31.6646 19.9358 30.5589C19.6619 29.3562 19.5965 28.1059 19.4476 26.8794ZM33.1418 33.5538C34.8149 32.9584 36.476 32.4999 38.0122 31.7676C38.4541 31.537 38.7914 31.1467 38.9556 30.676C39.1197 30.2054 39.0983 29.6899 38.8957 29.2345C38.693 28.7791 38.3244 28.4181 37.8649 28.225C37.4054 28.0319 36.8895 28.0213 36.4224 28.1952C34.4457 28.8978 32.5523 29.386 30.4684 28.4214C30.2399 28.3276 29.9944 28.2821 29.7474 28.288C29.5003 28.2939 29.2572 28.351 29.0333 28.4556C28.8095 28.5602 28.6099 28.7102 28.447 28.896C28.284 29.0817 28.1614 29.2993 28.0868 29.5348C27.9696 29.7539 27.8994 29.9951 27.8806 30.2428C27.8619 30.4906 27.895 30.7395 27.9779 30.9738C28.0609 31.208 28.1918 31.4224 28.3623 31.6031C28.5328 31.7839 28.7391 31.9271 28.9681 32.0236C30.266 32.6547 31.6949 33.0358 33.1477 33.5538H33.1418ZM26.9973 23.6582C27.1104 24.8907 27.7177 25.6528 28.9442 25.6469C29.2168 25.669 29.4908 25.6319 29.7477 25.5384C30.0046 25.4448 30.2383 25.2968 30.4327 25.1046C30.6272 24.9124 30.7779 24.6805 30.8745 24.4247C30.9711 24.1689 31.0113 23.8953 30.9924 23.6225C31.0193 23.3513 30.9865 23.0774 30.8961 22.8202C30.8057 22.563 30.66 22.3288 30.4692 22.1341C30.2785 21.9393 30.0473 21.7888 29.7921 21.6931C29.5368 21.5974 29.2636 21.5589 28.9918 21.5803C27.6998 21.6637 27.1163 22.4674 27.0032 23.6582H26.9973ZM39.2506 22.8128C39.2684 22.5373 39.2299 22.2611 39.1374 22.0011C39.0449 21.7411 38.9002 21.5026 38.7124 21.3003C38.5246 21.098 38.2976 20.9362 38.0452 20.8246C37.7927 20.713 37.5201 20.6541 37.2441 20.6515C36.9834 20.6399 36.7232 20.6822 36.4797 20.7759C36.2362 20.8697 36.0147 21.0127 35.8291 21.1961C35.6434 21.3794 35.4978 21.5992 35.4011 21.8415C35.3044 22.0839 35.2589 22.3436 35.2674 22.6044C35.2559 22.8721 35.2995 23.1393 35.3954 23.3895C35.4914 23.6397 35.6376 23.8676 35.8251 24.059C36.0126 24.2504 36.2374 24.4013 36.4856 24.5024C36.7337 24.6035 37 24.6525 37.2679 24.6466C37.5201 24.6619 37.7728 24.6261 38.0108 24.5413C38.2488 24.4565 38.4671 24.3246 38.6528 24.1533C38.8386 23.982 38.9878 23.775 39.0915 23.5447C39.1953 23.3143 39.2514 23.0654 39.2565 22.8128H39.2506Z" fill="white"/>
<path d="M49.7891 80.775C55.8979 70.8139 61.3338 61.0792 65.0789 50.5525C70.7114 51.4277 83.3458 62.5974 87.1087 70.0102L49.7891 80.775Z" fill="white"/>
<path d="M61.4103 48.7424C60.6065 50.6655 59.8562 52.3148 59.2072 54.0355C56.0635 62.3175 51.4671 69.8493 46.9658 77.4109C44.9415 80.8047 42.2027 83.4244 37.9813 84.252C34.8138 84.8474 31.7414 85.9906 28.6215 86.8777C28.0678 87.0385 27.5022 87.1695 26.502 87.4255C27.6332 86.0084 28.4727 84.9189 29.3539 83.8531C37.3025 74.2374 42.8933 63.3297 47.1207 51.6658C47.6565 50.1951 48.246 48.7364 48.9069 47.3253C49.019 47.1079 49.1791 46.9187 49.3751 46.7722C49.5711 46.6258 49.7978 46.5258 50.0381 46.4799C53.9214 46.6553 57.7556 47.4181 61.4103 48.7424Z" fill="#598DF5"/>
<path d="M84.7441 21.5147L88.257 18.7819L91.8949 22.9497L88.2272 26.7423L84.7441 21.5147Z" fill="white"/>
<path d="M34.6711 33.0416C33.687 33.366 32.6247 33.366 31.6406 33.0416C30.7361 32.7643 29.8492 32.4322 28.985 32.0473C28.7561 31.9508 28.5498 31.8075 28.3793 31.6268C28.2088 31.446 28.0779 31.2317 27.995 30.9974C27.9121 30.7632 27.8789 30.5142 27.8977 30.2665C27.9164 30.0187 27.9866 29.7776 28.1039 29.5585C28.1784 29.3229 28.301 29.1054 28.4639 28.9196C28.6268 28.7338 28.8266 28.5839 29.0504 28.4792C29.2742 28.3746 29.5173 28.3175 29.7643 28.3117C30.0113 28.3058 30.2569 28.3512 30.4855 28.4451C32.5634 29.4037 34.4568 28.9214 36.4395 28.2188C36.9066 28.0449 37.4225 28.0556 37.882 28.2487C38.3415 28.4418 38.7101 28.8028 38.9127 29.2582C39.1154 29.7136 39.1368 30.229 38.9726 30.6997C38.8085 31.1703 38.4711 31.5607 38.0292 31.7912C36.9354 32.2735 35.8141 32.691 34.6711 33.0416Z" fill="black"/>
<path d="M27.002 23.6581C27.1151 22.4673 27.6986 21.6636 28.9965 21.5802C29.2683 21.5588 29.5415 21.5973 29.7967 21.693C30.052 21.7887 30.2831 21.9392 30.4739 22.134C30.6647 22.3287 30.8104 22.5629 30.9008 22.8201C30.9912 23.0773 31.024 23.3512 30.9971 23.6224C31.016 23.8952 30.9758 24.1688 30.8792 24.4246C30.7826 24.6804 30.6319 24.9123 30.4374 25.1045C30.243 25.2967 30.0093 25.4447 29.7524 25.5383C29.4955 25.6318 29.2214 25.6689 28.9489 25.6468C27.7224 25.6527 27.1151 24.8906 27.002 23.6581Z" fill="black"/>
<path d="M39.2571 22.8126C39.2456 23.0595 39.1855 23.3017 39.0802 23.5253C38.9748 23.7489 38.8263 23.9495 38.6431 24.1155C38.46 24.2815 38.2458 24.4096 38.013 24.4925C37.7802 24.5755 37.5332 24.6116 37.2863 24.5988C37.0211 24.6069 36.7569 24.561 36.51 24.464C36.263 24.3669 36.0383 24.2207 35.8496 24.0342C35.6608 23.8476 35.512 23.6247 35.412 23.3789C35.312 23.1331 35.263 22.8695 35.2679 22.6042C35.2637 22.3469 35.3119 22.0915 35.4097 21.8535C35.5075 21.6155 35.6528 21.3999 35.8366 21.22C36.0205 21.04 36.2392 20.8994 36.4792 20.8067C36.7193 20.7141 36.9757 20.6713 37.2328 20.681C37.5076 20.6815 37.7795 20.7378 38.032 20.8464C38.2844 20.9551 38.5122 21.1139 38.7015 21.3132C38.8908 21.5125 39.0377 21.7482 39.1332 22.0059C39.2287 22.2636 39.2708 22.5381 39.2571 22.8126Z" fill="black"/>
</svg>

<svg xmlns="http://www.w3.org/2000/svg" width="103" height="98" fill="none" viewBox="0 0 103 98"><path fill="#000" d="M28.253 46.563c-2.346-1.637-4.876-2.977-6.853-4.858-9.074-8.747-7.687-24.477 2.661-31.658 8.896-6.168 21.375-2.435 25.906 7.955 3.573 8.264 2.418 16.022-3.352 23.018l-.81.965q.495.169 1.013.232c16.587.065 29.567 7.377 39.891 19.916a67 67 0 0 1 4.638 6.633c1.513 2.381.793 4.132-1.893 4.906Q47.556 85.729 5.652 97.768c-3.275.94-5.806-1.054-5.645-4.448C.71 78.244 5.872 65.092 16.881 54.5a44.5 44.5 0 0 1 10.985-7.68q.206-.11.387-.257m8.336 4.531c-.97 2.12-1.787 4.043-2.721 5.954-1.108 2.275-2.066 2.846-4.514 2.447a60 60 0 0 1-7.74-1.673 2.61 2.61 0 0 0-3.066.804C10.605 66.783 6.223 76.619 4.622 87.801c-.274 1.935-.37 3.9-.596 6.102 1.786-.488 3.245-.875 4.686-1.274 10.61-2.935 10.574-2.977 17.552-11.556A98.2 98.2 0 0 0 40.822 56.31c.226-.548.202-1.584-.149-1.923a49 49 0 0 0-4.06-3.293zM19.423 26.88c.15 1.227.215 2.477.465 3.68a20.6 20.6 0 0 0 1.012 3.239c2.977 7.609 11.586 11.116 18.493 7.55 10.026-5.18 11.354-20.351 2.334-27.228a3.2 3.2 0 0 0-2.322-.375c-2 .405-3.924 1.274-5.954 1.5-4.376.5-7.925 2.382-11.206 5.275a7.74 7.74 0 0 0-2.798 6.36zM49.79 80.775 87.102 70.01c-3.757-7.413-16.391-18.582-22.03-19.458-3.739 10.527-9.175 20.28-15.283 30.223M61.41 48.742a38.5 38.5 0 0 0-11.366-2.256 1.61 1.61 0 0 0-1.132.845 49 49 0 0 0-1.786 4.34C42.9 63.337 37.31 74.244 29.36 83.86c-.88 1.06-1.72 2.15-2.851 3.572 1-.256 1.565-.387 2.12-.547 3.119-.888 6.191-2.007 9.359-2.626 4.203-.828 6.96-3.447 8.984-6.841 4.508-7.562 9.098-15.094 12.242-23.376.643-1.708 1.393-3.375 2.197-5.299m-37.23 4.96.13.56c1.715.351 3.418.726 5.139 1.018a1.1 1.1 0 0 0 .887-.494c.792-1.668 1.506-3.37 2.245-5.061l-.435-.44zm20.511-7.282-5.543.816-.101.453 3.947 3.12zM91.235 6.85c.12 1.941.197 3.882.363 5.811.387 4.454 2.329 6.55 6.788 7.342.69.13 1.387.22 2.078.345 1.191.226 2.048.845 2.102 2.108.053 1.262-.739 1.947-1.941 2.22-1.364.304-2.74.596-4.085.97-3.37.942-5.108 3.174-5.24 6.687a1622 1622 0 0 0-.327 9.872c-.06 2.012-.643 2.977-1.911 3.09s-2.423-1.078-2.644-2.977c-.262-2.197-.315-4.424-.66-6.603a56.5 56.5 0 0 0-1.554-7.252c-.864-2.917-2.882-4.602-6.067-4.644a5.6 5.6 0 0 1-1.418-.292c-1.333-.375-2.274-1.078-1.953-2.655.245-1.239 1.727-2.227 3.079-2.108 4.168.381 7.74-2.012 8.591-6.085.483-2.352.47-4.805.596-7.222.077-1.233-.161-2.519.095-3.71.149-.69.935-1.667 1.53-1.738.697-.09 1.68.506 2.203 1.095.429.489.44 1.412.483 2.15.07 1.19 0 2.381 0 3.572zm-6.472 14.665 3.483 5.221 3.668-3.792-3.638-4.168z"/><path fill="#fff" d="M19.448 26.88a7.74 7.74 0 0 1 2.846-6.36c3.28-2.881 6.829-4.763 11.205-5.275 2.007-.226 3.93-1.095 5.954-1.5a3.2 3.2 0 0 1 2.322.375c9.02 6.877 7.693 22.03-2.334 27.228-6.907 3.572-15.516.06-18.493-7.55a20.6 20.6 0 0 1-1.012-3.24c-.274-1.202-.34-2.452-.488-3.679m13.694 6.674c1.673-.596 3.334-1.054 4.87-1.786a1.959 1.959 0 0 0-1.59-3.573c-1.976.703-3.87 1.191-5.954.226a1.786 1.786 0 0 0-2.381 1.114 1.79 1.79 0 0 0 .881 2.489c1.298.63 2.727 1.012 4.18 1.53zm-6.145-9.896c.113 1.233.72 1.995 1.947 1.989a1.9 1.9 0 0 0 2.048-2.024 1.865 1.865 0 0 0-2-2.043c-1.292.084-1.876.887-1.989 2.078zm12.254-.845a2.03 2.03 0 0 0-2.007-2.161 1.894 1.894 0 0 0-1.977 1.952 1.96 1.96 0 0 0 2 2.043 1.875 1.875 0 0 0 1.99-1.834zM49.79 80.775c6.108-9.961 11.544-19.696 15.289-30.223 5.632.876 18.267 12.045 22.03 19.458z"/><path fill="#598df5" d="M61.41 48.742c-.803 1.924-1.554 3.573-2.203 5.294-3.144 8.282-7.74 15.813-12.241 23.375-2.025 3.394-4.763 6.013-8.985 6.841-3.167.595-6.24 1.739-9.36 2.626-.553.16-1.119.291-2.119.547 1.131-1.417 1.97-2.506 2.852-3.572 7.949-9.616 13.54-20.523 17.767-32.187a53 53 0 0 1 1.786-4.34 1.61 1.61 0 0 1 1.131-.846c3.883.175 7.718.938 11.372 2.262"/><path fill="#fff" d="m84.744 21.515 3.513-2.733 3.638 4.168-3.668 3.792z"/><path fill="#000" d="M34.671 33.042a4.84 4.84 0 0 1-3.03 0 23 23 0 0 1-2.656-.995 1.79 1.79 0 0 1-.881-2.488 1.786 1.786 0 0 1 2.381-1.114c2.078.959 3.972.476 5.955-.226a1.96 1.96 0 0 1 1.59 3.572 31 31 0 0 1-3.359 1.25M27.002 23.658c.113-1.19.697-1.994 1.995-2.078a1.863 1.863 0 0 1 2 2.042 1.9 1.9 0 0 1-2.048 2.025c-1.227.006-1.834-.756-1.947-1.989M39.257 22.813a1.88 1.88 0 0 1-1.97 1.786 1.96 1.96 0 0 1-2.02-1.995 1.894 1.894 0 0 1 1.966-1.923 2.03 2.03 0 0 1 2.024 2.132"/></svg>
